X:1
T:Ave Maria
T:Schubert
%%score 1 2
L:1/8
Q:1/4=57
M:4/4
K:F
V:1 treble transpose=-2 nm="Flugelhorn" snm="Flghn."
V:2 treble-8 nm="Guitar" snm="Guit."
V:1
[K:G]"^Largo" z8 | z8 | z8 | z8 |!p! (G6 F)G | (B6 A2) | G3 z z4 | A4{BA} (GF) (EF) | G4 z2 B2 | %9
 B3 A/G/ FE (B^c) | B4 ^A2 z F | A2 (3:2:2(A2 G) (3FAB (3(cA)F | G3 z z2 B2 | A3 F (3E^GB (3dBG | %14
 (A4 (3A)EF (3:2:5G/A/4G/4F3/2E/ | D4 z2 D2 | A3 A (A^G) AB | A3 B G2 z G | A3 A (3A^GA (3cBA | %19
 G4 z2 G2 | A3 A (3:2:2B2 B (3(BA)B | (d4 c2) z E | B A2 A (3GFG (3_BAG | A4 z4 | (G6 F)G | %25
 (B6 A2) | G3 z z4 | z8 |] %28
V:2
 (3F,CF (3AFC (3F,CF (3AFC | (3F,FA (3cAF (3F,Ac (3_ecA | (3F,FB (3dBF (3F,EB (3^cBE | %3
 (3F,FA (3cAF (3F,A,C (3FCA, | (3F,A,C (3FCA, (3D,A,=B, (3FB,A, | (3C,A,C (3FCA, (3C,B,E (3GEB, | %6
 (3D,DF (3AFD (3D,DF (3AFD | (3B,,B,D (3GDB, (3C,B,C (3ECB, | (3F,CF (3AFC (3F,A,C (3FCA, | %9
 (3F,A,^C (3FCA, (3F,A,D (3FDA, | (3E,DF (3AFD (3E,DE (3^GED | (3^C,EG (3BGE (3C,B,E (3GEB, | %12
 (3D,DF (3AFD (3D,=B,F (3AFB, | (3E,G,C (3ECG, (3A,D^F (3cFD | (3G,EG (3cGE (3G,FG (3=BGF | %15
 (3C,EG (3cGE (3C,EG (3cGE | (3C,B,E (3GEB, (3C,B,E (3GEB, | (3C,FA (3cAF (3C,FA (3cAF | %18
 (3C,B,E (3GEB, (3C,B,E (3GEB, | (3D,DF (3AFD (3D,F,A, (3DA,F, | (3C,CE (3GEC (3A,^CE (3AEC | %21
 (3G,DG (3BGD (3G,DG (3BGD | (3B,,G,B, (3DB,G, (3D,_A,B, (3FA,B, | (3C,CE (3GEC (3C,B,E (3GEB, | %24
 (3F,CF (3AFC (3D,=B,F (3AFB, | (3C,CF (3AFC (3C,B,E (3GEB, | (3F,A,C (3FCA, (3F,A,C (3FAc | %27
 !fermata!f4 z4 |] %28

